X: 5425
T: Bull At The Waterhole
R: reel
M: 4/4
K: Bminor
|:B2fe d3B|c2Ac Bcde|fB B2 BcdB|cBAc B3c|
f3e dB B2|c2 Ac Bcde|f2 ef dB B2|1 BAFA B3A:|2 BAFA B3c||
|:c3e dB B2|F3B edcA|f3e BcdB|cBAc B3A|
FB B2 Bcde|fagb afea|fecf fB B2|1 BAFA B3c:|2 BAFA B4||

